symbols/amenity/public_transport_tickets.svg

<?xml version="1.0" encoding="UTF-8" standalone="no"?>
<svg
   xmlns:dc="http://purl.org/dc/elements/1.1/"
   xmlns:cc="http://creativecommons.org/ns#"
   xmlns:rdf="http://www.w3.org/1999/02/22-rdf-syntax-ns#"
   xmlns:svg="http://www.w3.org/2000/svg"
   xmlns="http://www.w3.org/2000/svg"
   version="1.1"
   id="svg109"
   width="14"
   height="14"
   viewBox="0 0 14 14">
  <metadata
     id="metadata115">
    <rdf:RDF>
      <cc:Work
         rdf:about="">
        <dc:format>image/svg+xml</dc:format>
        <dc:type
           rdf:resource="http://purl.org/dc/dcmitype/StillImage" />
        <dc:title></dc:title>
      </cc:Work>
    </rdf:RDF>
  </metadata>
  <defs
     id="defs113" />
  <g
     transform="matrix(-0.12936428,0.12826107,-0.12936428,-0.12826107,161.72173,128.62232)"
     id="g4"
     style="stroke:#000000;stroke-width:1.09789392;stroke-miterlimit:4;stroke-dasharray:none;stroke-opacity:1">
    <path
       id="path2"
       transform="matrix(-3.8650546,-3.8650546,3.898299,-3.898299,123.65505,1126.4716)"
       d="M 0,0 V 3 H 1 V 1 h 12 v 2 h 1 V 0 Z m 3,2 v 12 c 1,0 2,0 3,0 v -1 -0.04883 h 0.00195 C 6.0279788,12.418798 6.4669903,12.000405 7,12 c 0.5330097,4.05e-4 0.9720212,0.418798 0.9980469,0.951172 H 8 V 13 14 c 1,0 2,0 3,0 V 2 H 10 V 8 H 4 V 2 Z m 1,7 6,0.00195 V 13 H 9 C 9,11.895431 8.1045695,11 7,11 5.8954305,11 5,11.895431 5,13 H 4 Z"
       style="color:#000000;font-style:normal;font-variant:normal;font-weight:normal;font-stretch:normal;font-size:medium;line-height:normal;font-family:sans-serif;font-variant-ligatures:normal;font-variant-position:normal;font-variant-caps:normal;font-variant-numeric:normal;font-variant-alternates:normal;font-feature-settings:normal;text-indent:0;text-align:start;text-decoration:none;text-decoration-line:none;text-decoration-style:solid;text-decoration-color:#000000;letter-spacing:normal;word-spacing:normal;text-transform:none;writing-mode:lr-tb;direction:ltr;text-orientation:mixed;dominant-baseline:auto;baseline-shift:baseline;text-anchor:start;white-space:normal;shape-padding:0;clip-rule:nonzero;display:inline;overflow:visible;visibility:visible;opacity:1;isolation:auto;mix-blend-mode:normal;color-interpolation:sRGB;color-interpolation-filters:linearRGB;solid-color:#000000;solid-opacity:1;vector-effect:none;fill:#000000;fill-opacity:1;fill-rule:nonzero;stroke:none;stroke-width:0.2;stroke-linecap:butt;stroke-linejoin:miter;stroke-miterlimit:4;stroke-dasharray:none;stroke-dashoffset:0;stroke-opacity:1;color-rendering:auto;image-rendering:auto;shape-rendering:auto;text-rendering:auto;enable-background:accumulate" />
  </g>
</svg>

<?xml version="1.0" encoding="UTF-8"?>
<svg version="1.1" width="14" height="14" viewBox="0 0 14 14" xmlns="http://www.w3.org/2000/svg">
  <path d="m-6.976e-4 -0.0042584v3h0.99998v-2h12v2h0.99998v-3zm2.9999 2v12h2.9999v-1.0488h0.00195c0.026028-0.53237 0.46503-0.95075 0.99803-0.95116 0.533 4.05e-4 0.972 0.4188 0.99803 0.95116h0.00195v1.0488h2.9999v-12h-0.99998v6h-5.9999v-6zm0.99998 6.9999 5.9999 0.00195v3.998h-0.99998c0-1.1046-0.89541-2-2-2s-2 0.89542-2 2h-0.99998z"/>
</svg>
